!!!COM: Schubert, Franz Peter
!!!CDT: 1797-1828
!!!OTL: Heidenroeslein
!!!OPS: Opus 3
!!!ONM: No. 3
!!!SCT: DV 257
!!!YOR: Franz Schubert: Selected songs
!!!PPE: Max Friedlaender
!!!PSR: C.F. Peters 
!!!PSP: Frankfurt, London, New York
!!!PSD: n.d.
!!!PPG: pp.73-74
!!!ODT: 1815///
!!!ONB: Leading and trailing bars of rest have been deleted.
**kern
*M2/4
*MM[Lieblich]
*G:
*k[f#]
=1
8b
8b
8b
8b
=2
(16dd
16cc)
(16cc
16b)
4a
=3
8a
8a
8b
8cc
=4
4dd
8gg
8r
=5
8b
8b
8b
8b
=6
(16dd
16cc#)
(16cc#
16b)
4a
=7
8dd
8dd
8.ee
16dd
=8
(16cc#
16dd)
(16ee
16ff#)
4dd
=9
(16dd
16ff#)
(16ee
16dd)
(16cc#
16b)
(16a#
16b)
=10
(8.gg
16cc#)
4dd;
=11
8a
8a
8b
8ccn
=12
8dd
(16ee
16ff#)
4gg;
=13
8ee
8gg
8cc
8ee
=14
(8g
16b
16a)
4g
=15
2r
=16
2r
=17
8b
8b
8b
8b
=18
(16dd
16cc)
(16cc
16b)
4a
=19
8a
8a
8b
8cc
=20
4dd
8gg
8r
=21
8b
8b
8b
8b
=22
(16dd
16cc#)
(16cc#
16b)
4a
=23
8dd
8dd
8.ee
16dd
=24
(16cc#
16dd)
(16ee
16ff#)
4dd
=25
(16dd
16ff#)
(16ee
16dd)
(16cc#
16b)
(16a#
16b)
=26
(8.gg
16cc#)
4dd;
=27
8a
8a
8b
8ccn
=28
8dd
(16ee
16ff#)
4gg;
=29
8ee
8gg
8cc
8ee
=30
(8g
16b
16a)
4g
=31
2r
=32
2r
=33
8b
8b
8b
8b
=34
(16dd
16cc)
(16cc
16b)
4a
=35
8a
8a
8b
8cc
=36
4dd
8gg
8r
=37
8b
8b
8b
8b
=38
(16dd
16cc#)
(16cc#
16b)
4a
=39
8dd
8dd
8.ee
16dd
=40
(16cc#
16dd)
(16ee
16ff#)
4dd
=41
(16dd
16ff#)
(16ee
16dd)
(16cc#
16b)
(16a#
16b)
=42
(8.gg
16cc#)
4dd;
=43
8a
8a
8b
8ccn
=44
8dd
(16ee
16ff#)
4gg;
=45
8ee
8gg
8cc
8ee
=46
(8g
16b
16a)
4g
==
*-
!!!ENC: David Huron
!!!EMD: Paul von Hippel updated this file in the following ways (1998/9/2,21-22/):
!!!EMD:  (1) changed the representation of slurs from curly braces to parentheses 
!!!EMD:  (2) changed freeform comments into reference records and tandem interpretations
!!!EMD:  (3) changed final barline from quadruple (====) to double (==)
!!!EMD:  (4) added key signatures, key designations, and tempi
!!!EEV: Version 2.0
